packages/core/src/svgs/tokens/branded/MNW.svg

<svg width="24" height="24" viewBox="0 0 24 24" fill="none" xmlns="http://www.w3.org/2000/svg">
<path d="M5.39974 5.86069L2.02918 18.3489C1.81153 19.1606 2.86446 19.7134 3.42917 19.0782L7.93501 14.0195L10.6996 17.1489C10.8641 17.3324 11.0654 17.4794 11.2904 17.5798C11.5155 17.6804 11.7591 17.7323 12.0056 17.7323C12.252 17.7323 12.4957 17.6804 12.7207 17.5798C12.9458 17.4794 13.147 17.3324 13.3114 17.1489L16.0761 14.0254L20.5702 19.0546C21.1408 19.69 22.1878 19.137 21.9702 18.3253L18.6054 5.87834C18.5232 5.58804 18.3646 5.3252 18.1458 5.11734C17.9271 4.90948 17.6565 4.76427 17.3625 4.69691C17.0683 4.62954 16.7616 4.64251 16.4742 4.73446C16.1868 4.8264 15.9294 4.99395 15.729 5.21953L11.9997 9.43713L8.28207 5.21364C8.08252 4.98795 7.82602 4.81999 7.53936 4.72729C7.25272 4.63461 6.94644 4.62059 6.65253 4.68671C6.35861 4.75282 6.08785 4.89665 5.86851 5.10316C5.64917 5.30967 5.4893 5.57129 5.40562 5.86069H5.39974Z" fill="url(#paint0_linear_364_14233)"/>
<path d="M5.39976 5.86069L3.18213 14.0782C3.31256 13.7657 3.50514 13.483 3.74816 13.2471C3.99118 13.0112 4.2796 12.8272 4.5959 12.7062C4.9122 12.5852 5.24979 12.5297 5.58819 12.543C5.92657 12.5565 6.25871 12.6386 6.56446 12.7842C7.15269 13.0606 7.61151 13.5841 7.93503 14.0195L10.6996 17.1371C10.8641 17.3207 11.0654 17.4676 11.2904 17.568C11.5155 17.6686 11.7591 17.7207 12.0056 17.7207C12.252 17.7207 12.4957 17.6686 12.7207 17.568C12.9458 17.4676 13.147 17.3207 13.3114 17.1371L16.0761 14.0195L19.6937 9.90777C19.1788 10.4248 18.5596 10.8263 17.8775 11.0854C17.1955 11.3447 16.4659 11.4557 15.7375 11.4112C15.0091 11.3668 14.2986 11.1676 13.6531 10.8272C13.0076 10.487 12.4419 10.013 11.9938 9.43713L8.2762 5.21364C8.07665 4.98795 7.82015 4.81999 7.53351 4.72729C7.24687 4.63461 6.94059 4.62059 6.64667 4.68671C6.35276 4.75282 6.08198 4.89665 5.86265 5.10316C5.64331 5.30967 5.48345 5.57129 5.39976 5.86069Z" fill="url(#paint1_linear_364_14233)"/>
<path d="M16.0767 14.0196L20.5708 19.049C21.1413 19.6842 22.1883 19.1313 21.9707 18.3195L19.6943 9.9079L16.0767 14.0196Z" fill="url(#paint2_linear_364_14233)"/>
<path d="M3.18211 14.0723L2.02918 18.343C1.81153 19.1547 2.86446 19.7077 3.42917 19.0723L7.93501 14.0136C7.57351 13.4547 7.05896 13.0116 6.45267 12.7371C6.14989 12.6093 5.8249 12.5426 5.4963 12.5407C5.1677 12.5386 4.84193 12.6015 4.53761 12.7254C4.23331 12.8495 3.95644 13.0323 3.72283 13.2633C3.48924 13.4945 3.3035 13.7694 3.17623 14.0723H3.18211Z" fill="url(#paint3_linear_364_14233)"/>
<defs>
<linearGradient id="paint0_linear_364_14233" x1="16.7937" y1="5.81363" x2="16.0996" y2="10.7136" gradientUnits="userSpaceOnUse">
<stop stop-color="#5083A9"/>
<stop offset="1" stop-color="#12132C"/>
</linearGradient>
<linearGradient id="paint1_linear_364_14233" x1="20.0544" y1="13.093" x2="2.00143" y2="13.5226" gradientUnits="userSpaceOnUse">
<stop stop-color="#1C2849"/>
<stop offset="1" stop-color="#5893BA"/>
</linearGradient>
<linearGradient id="paint2_linear_364_14233" x1="8.91209" y1="7.91658" x2="11.3753" y2="20.05" gradientUnits="userSpaceOnUse">
<stop stop-color="#13182F"/>
<stop offset="1" stop-color="#5284AC"/>
</linearGradient>
<linearGradient id="paint3_linear_364_14233" x1="6.58796" y1="12.9722" x2="2.99975" y2="18.9252" gradientUnits="userSpaceOnUse">
<stop stop-color="#1C2849"/>
<stop offset="1" stop-color="#436C92"/>
</linearGradient>
</defs>
</svg>

<svg xmlns="http://www.w3.org/2000/svg" width="24" height="24" fill="none" viewBox="0 0 24 24">
    <path fill="url(#MNW__a)" d="M5.4 5.86 2.03 18.35c-.218.812.834 1.364 1.4.73l4.505-5.06 2.765 3.13a1.753 1.753 0 0 0 2.611 0l2.765-3.124 4.494 5.03c.57.635 1.618.082 1.4-.73L18.605 5.878a1.681 1.681 0 0 0-2.876-.658l-3.73 4.217-3.717-4.223a1.682 1.682 0 0 0-2.876.647z"/>
    <path fill="url(#MNW__b)" d="m5.4 5.86-2.218 8.218a2.5 2.5 0 0 1 3.382-1.294c.589.277 1.048.8 1.371 1.236l2.765 3.117a1.752 1.752 0 0 0 2.611 0l2.765-3.117 3.618-4.112a5.14 5.14 0 0 1-6.04.92 5.1 5.1 0 0 1-1.66-1.39L8.276 5.213A1.682 1.682 0 0 0 5.4 5.86"/>
    <path fill="url(#MNW__c)" d="m16.077 14.02 4.494 5.029c.57.635 1.617.082 1.4-.73l-2.277-8.411z"/>
    <path fill="url(#MNW__d)" d="M3.182 14.072 2.03 18.343c-.217.812.835 1.365 1.4.73l4.506-5.06a3.47 3.47 0 0 0-1.482-1.276 2.5 2.5 0 0 0-2.73.526c-.234.232-.42.506-.547.81z"/>
    <defs>
        <linearGradient id="MNW__a" x1="16.794" x2="16.1" y1="5.814" y2="10.714" gradientUnits="userSpaceOnUse">
            <stop stop-color="#5083A9"/>
            <stop offset="1" stop-color="#12132C"/>
        </linearGradient>
        <linearGradient id="MNW__b" x1="20.054" x2="2.001" y1="13.093" y2="13.523" gradientUnits="userSpaceOnUse">
            <stop stop-color="#1C2849"/>
            <stop offset="1" stop-color="#5893BA"/>
        </linearGradient>
        <linearGradient id="MNW__c" x1="8.912" x2="11.375" y1="7.917" y2="20.05" gradientUnits="userSpaceOnUse">
            <stop stop-color="#13182F"/>
            <stop offset="1" stop-color="#5284AC"/>
        </linearGradient>
        <linearGradient id="MNW__d" x1="6.588" x2="3" y1="12.972" y2="18.925" gradientUnits="userSpaceOnUse">
            <stop stop-color="#1C2849"/>
            <stop offset="1" stop-color="#436C92"/>
        </linearGradient>
    </defs>
</svg>
